X:867
T:Reel 867
M:4/4
K:Gmaj
L:1/8
 (3GED |G2BG DGBG|FGAB c2Bc| (3BAG AG EGDG| (3Bcd AF GFED|G2BG DGBd|cBAB cedc|B2AG EGDc|BGAF G2|ef|g2ge fgfd|edef gedc|BGBd edef|gedB A2Bd|gfge fgaf|gfeg edBd|cBAB cBAG|FGAF G2|
